svg/report-card.svg

<?xml version="1.0" encoding="UTF-8"?>
<svg xmlns="http://www.w3.org/2000/svg" xmlns:xlink="http://www.w3.org/1999/xlink" width="32" height="32" viewBox="0 0 32 32">
<path fill-rule="nonzero" fill="rgb(0%, 0%, 0%)" fill-opacity="1" d="M 31.359375 2.558594 L 0.640625 2.558594 C 0.289062 2.558594 0 2.847656 0 3.199219 L 0 28.800781 C 0 29.15625 0.289062 29.441406 0.640625 29.441406 L 31.359375 29.441406 C 31.714844 29.441406 32 29.15625 32 28.800781 L 32 3.199219 C 32 2.847656 31.714844 2.558594 31.359375 2.558594 M 18.558594 23.039062 L 5.761719 23.039062 L 5.761719 21.761719 L 18.558594 21.761719 Z M 18.558594 16.640625 L 5.761719 16.640625 L 5.761719 15.359375 L 18.558594 15.359375 Z M 18.558594 10.238281 L 5.761719 10.238281 L 5.761719 8.960938 L 18.558594 8.960938 Z M 26.828125 21.613281 L 25.035156 24.175781 C 24.933594 24.316406 24.78125 24.414062 24.609375 24.441406 C 24.4375 24.46875 24.261719 24.421875 24.121094 24.316406 L 22.457031 23.035156 C 22.175781 22.820312 22.125 22.417969 22.339844 22.136719 C 22.554688 21.855469 22.957031 21.804688 23.238281 22.019531 L 24.371094 22.890625 L 25.78125 20.878906 C 25.90625 20.679688 26.132812 20.566406 26.367188 20.582031 C 26.601562 20.601562 26.808594 20.746094 26.90625 20.960938 C 27 21.175781 26.972656 21.425781 26.828125 21.613281 M 26.828125 15.214844 L 25.035156 17.773438 C 24.9375 17.917969 24.78125 18.015625 24.609375 18.039062 C 24.578125 18.046875 24.546875 18.046875 24.511719 18.046875 C 24.371094 18.046875 24.234375 18 24.121094 17.914062 L 22.457031 16.636719 C 22.175781 16.421875 22.125 16.019531 22.339844 15.738281 C 22.554688 15.457031 22.957031 15.40625 23.238281 15.621094 L 24.371094 16.492188 L 25.78125 14.484375 C 25.902344 14.277344 26.132812 14.15625 26.371094 14.171875 C 26.609375 14.183594 26.820312 14.332031 26.917969 14.550781 C 27.011719 14.773438 26.980469 15.027344 26.828125 15.214844 M 26.828125 8.816406 L 25.03125 11.375 C 24.929688 11.519531 24.777344 11.613281 24.605469 11.640625 C 24.433594 11.667969 24.257812 11.621094 24.117188 11.515625 L 22.453125 10.234375 C 22.171875 10.019531 22.121094 9.617188 22.335938 9.335938 C 22.550781 9.054688 22.953125 9.003906 23.234375 9.21875 L 24.367188 10.09375 L 25.777344 8.078125 C 25.980469 7.789062 26.378906 7.71875 26.667969 7.921875 C 26.957031 8.128906 27.027344 8.527344 26.824219 8.816406 M 26.824219 8.816406 "/>
</svg>

<svg role="img" viewBox="0 0 32 32" height="32" width="32" xmlns="http://www.w3.org/2000/svg"><path d="M31.36 2.559H.64c-.35 0-.64.289-.64.64v25.602c0 .355.29.64.64.64h30.72c.355 0 .64-.285.64-.64V3.199a.641.641 0 0 0-.64-.64m-12.801 20.48H5.762v-1.277h12.797Zm0-6.398H5.762v-1.282h12.797Zm0-6.403H5.762V8.961h12.797Zm8.27 11.375-1.794 2.563a.655.655 0 0 1-.426.265.646.646 0 0 1-.488-.125l-1.664-1.28a.64.64 0 1 1 .781-1.016l1.133.87 1.41-2.011a.64.64 0 1 1 1.047.734m0-6.398-1.793 2.558a.618.618 0 0 1-.426.266c-.03.008-.062.008-.097.008a.638.638 0 0 1-.39-.133l-1.665-1.277a.64.64 0 0 1 .781-1.016l1.133.871 1.41-2.008a.634.634 0 0 1 .59-.312c.238.012.45.16.547.379a.649.649 0 0 1-.09.664m0-6.399-1.797 2.559a.645.645 0 0 1-.426.266.646.646 0 0 1-.488-.125l-1.664-1.282a.64.64 0 0 1 .781-1.015l1.133.875 1.41-2.016a.64.64 0 1 1 1.047.738m0 0"/></svg>
